X:66
T:Schottisch aus Schwaben (Hackbrett part - melody)
R:Schottisch
B:hackbrett tutor NEUES SCHULWERK FÜR HACKBRETT by Karl-Heinz Schickhaus
O:Schwaben (Germany)
S:manuscript tunebook from the town of Wollishausen (1863)
L:1/16
M:2/4
P:AABBAACC
Z:transcribed into abc by Gianni Cunich, g.cunich@tiscalinet.it
K:C
P:A
"F"cBcA "C"G2EG | "G7"F2DF "C"E2C2 | "F"cBcA "C"G2EG | "G7"FEFD "C"C4 |
EDEF G2EG | "G7"F2DF "C"EGc2 | EDEF G2EG | "G7"FDFD "C"C4 :|
P:B
K:G
"G"B2d2 B2d2 | "C"efge "G"d2d2 |B2d2 B2d2 | "D7"cBcA "G"G4 |
"D7"FEFD "G"G2G2 | "D7"AGAc "G"B2G2 | "D7"FEFD "G"G2G2 | "D/"AcFA "G"G4 :|
P:Trio
K:F
"F"c2Ac f2cf| a2f2 c2A2 | "C7"B2GB e2ce | gfge "F"f4 |
c2ag fedc | "C7"B2gf edcB | "F"A2c2 f2a2 | "C7"gfge "F"e4 :|

